img/logo.svg

<svg width="256" height="68" viewBox="0 0 256 68" fill="none" xmlns="http://www.w3.org/2000/svg">
<circle cx="238.5" cy="17.5" r="17" stroke="#E3E3E3"/>
<path d="M232.609 23H230.391V14.3125L228.227 15.1484V13.3047L232.375 11.6094H232.609V23ZM241.109 11.5078V13.3828H240.984C240.156 13.388 239.497 13.638 239.008 14.1328C238.523 14.6224 238.229 15.3099 238.125 16.1953C238.599 15.6536 239.193 15.3828 239.906 15.3828C240.729 15.3828 241.385 15.7344 241.875 16.4375C242.37 17.1406 242.617 18.0781 242.617 19.25C242.617 19.9948 242.477 20.6667 242.195 21.2656C241.914 21.8646 241.518 22.3307 241.008 22.6641C240.503 22.9922 239.93 23.1562 239.289 23.1562C238.258 23.1562 237.43 22.7422 236.805 21.9141C236.185 21.0859 235.875 19.9714 235.875 18.5703V17.75C235.875 16.4948 236.07 15.3958 236.461 14.4531C236.857 13.5104 237.424 12.7865 238.164 12.2812C238.909 11.7708 239.776 11.513 240.766 11.5078H241.109ZM239.211 17.2109C238.93 17.2109 238.693 17.2995 238.5 17.4766C238.312 17.6536 238.172 17.8724 238.078 18.1328V18.9297C238.078 19.7318 238.185 20.3307 238.398 20.7266C238.612 21.1224 238.893 21.3203 239.242 21.3203C239.596 21.3203 239.88 21.1302 240.094 20.75C240.307 20.3646 240.414 19.8724 240.414 19.2734C240.414 18.6641 240.302 18.1693 240.078 17.7891C239.859 17.4036 239.57 17.2109 239.211 17.2109ZM248.031 16.625H250.242V18.6797H248.031V21.8594H245.938V18.6797H243.688V16.625H245.938V13.5781H248.031V16.625Z" fill="#BABABA"/>
<path fill-rule="evenodd" clip-rule="evenodd" d="M161.742 28.1758V54.5275L156.527 42.9812L161.742 28.1758Z" fill="#30AFCC"/>
<path fill-rule="evenodd" clip-rule="evenodd" d="M138.928 67.7034L156.527 42.9812L161.742 54.5275L138.928 67.7034Z" fill="#56C5D0"/>
<path fill-rule="evenodd" clip-rule="evenodd" d="M116.115 28.1758V54.5275L122.913 34.6473L116.115 28.1758Z" fill="#0054A6"/>
<path fill-rule="evenodd" clip-rule="evenodd" d="M138.928 67.7034L131.153 56.2502L116.115 54.5276L138.928 67.7034Z" fill="#0054A6"/>
<path fill-rule="evenodd" clip-rule="evenodd" d="M156.527 42.9812L138.928 15L161.742 28.1759L156.527 42.9812Z" fill="#56C5D0"/>
<path fill-rule="evenodd" clip-rule="evenodd" d="M122.913 34.6474L138.928 15L116.115 28.1759L122.913 34.6474Z" fill="#006DB7"/>
<path fill-rule="evenodd" clip-rule="evenodd" d="M156.527 42.9812L138.928 15L122.913 34.6474L156.527 42.9812Z" fill="#1090C0"/>
<path fill-rule="evenodd" clip-rule="evenodd" d="M156.527 42.9811L122.913 34.6472L131.153 56.25L156.527 42.9811Z" fill="#30AFCC"/>
<path fill-rule="evenodd" clip-rule="evenodd" d="M138.928 67.7034L156.527 42.9812L131.153 56.2502L138.928 67.7034Z" fill="#1090C0"/>
<path fill-rule="evenodd" clip-rule="evenodd" d="M131.153 56.25L116.115 54.5274L122.913 34.6472L131.153 56.25Z" fill="#006DB7"/>
<path d="M211 45.6349V28.3154H207.043V45.4487C207.043 48.9405 204.854 51.0822 201.595 51.0822C198.336 51.0822 196.195 48.894 196.195 45.4487V28.3154H192.237V45.6349C192.237 51.0356 196.288 54.6671 201.595 54.6671C206.949 54.6671 211 51.0356 211 45.6349ZM182.553 35.9975C182.553 38.5581 180.737 40.0946 178.13 40.0946H172.264V31.8538H178.13C180.737 31.8538 182.553 33.3902 182.553 35.9975ZM187.302 54.4344L181.296 42.888C184.229 42.0965 186.511 39.6755 186.511 35.9509C186.511 31.5279 183.345 28.3154 178.41 28.3154H168.26V54.4344H172.217V43.4467H177.152L182.646 54.4809H187.302V54.4344Z" fill="#56C5D0"/>
<path fill-rule="evenodd" clip-rule="evenodd" d="M49.8634 28.3154H56.428L62.434 41.3516V28.3154H68.9987V54.6671H62.434L56.428 41.5844V54.6671H49.8634V28.3154Z" fill="#006DB7"/>
<path fill-rule="evenodd" clip-rule="evenodd" d="M31.473 34.8801H37.479V48.1025H31.473V34.8801ZM44.0902 28.3154H32.5439L24.955 32.6919V54.6671H36.5013L44.0902 50.2907V28.3154Z" fill="#006DB7"/>
<path fill-rule="evenodd" clip-rule="evenodd" d="M6.56465 34.8801H12.5706V48.1491H6.56465V34.8801ZM11.5463 28.3154H0V54.6671H11.5463L19.1353 50.2907V32.6919L11.5463 28.3154Z" fill="#006DB7"/>
<path d="M112.53 50.9425V46.4264H110.156V41.5379H105.547V46.4264H100.099L109.038 28.5017H103.824L94.8848 46.4264V50.9425H105.547V54.6672H110.156V50.9425H112.53ZM91.8585 54.6672V50.3373H81.7089L89.0651 41.8172C90.8808 39.7221 91.8585 38.3719 91.8585 35.8113C91.8585 31.1089 88.5529 28.1758 83.8972 28.1758C79.3811 28.1758 75.8892 31.0624 75.8892 35.8578H80.6847C80.6847 33.2971 82.3142 32.5057 83.8972 32.5057C85.9457 32.5057 87.0631 33.8558 87.0631 35.8113C87.0631 37.0218 86.6441 37.8598 85.7129 38.9772L75.8892 50.3373V54.6672H91.8585Z" fill="#006DB7"/>
</svg>

<svg width="256" height="68" fill="none" xmlns="http://www.w3.org/2000/svg"><circle cx="238.5" cy="17.5" r="17" stroke="#E3E3E3"/><path d="M232.609 23h-2.218v-8.688l-2.164.836v-1.843l4.148-1.696h.234V23zm8.5-11.492v1.875h-.125c-.828.005-1.487.255-1.976.75-.485.49-.779 1.177-.883 2.062a2.269 2.269 0 011.781-.812c.823 0 1.479.351 1.969 1.055.495.703.742 1.64.742 2.812 0 .745-.14 1.417-.422 2.016-.281.599-.677 1.065-1.187 1.398a3.086 3.086 0 01-1.719.492c-1.031 0-1.859-.414-2.484-1.242-.62-.828-.93-1.943-.93-3.344v-.82c0-1.255.195-2.354.586-3.297.396-.943.963-1.666 1.703-2.172.745-.51 1.612-.768 2.602-.773h.343zm-1.898 5.703a1.01 1.01 0 00-.711.266 1.657 1.657 0 00-.422.656v.797c0 .802.107 1.4.32 1.797.214.395.495.593.844.593.354 0 .638-.19.852-.57.213-.385.32-.878.32-1.477 0-.609-.112-1.104-.336-1.484-.219-.385-.508-.578-.867-.578zm8.82-.586h2.211v2.055h-2.211v3.18h-2.093v-3.18h-2.25v-2.055h2.25v-3.047h2.093v3.047z" fill="#BABABA"/><path fill-rule="evenodd" clip-rule="evenodd" d="M161.742 28.176v26.352l-5.215-11.547 5.215-14.805z" fill="#30AFCC"/><path fill-rule="evenodd" clip-rule="evenodd" d="M138.928 67.703l17.599-24.722 5.215 11.547-22.814 13.175z" fill="#56C5D0"/><path fill-rule="evenodd" clip-rule="evenodd" d="M116.115 28.176v26.352l6.798-19.88-6.798-6.472zm22.813 39.527l-7.775-11.453-15.038-1.722 22.813 13.175z" fill="#0054A6"/><path fill-rule="evenodd" clip-rule="evenodd" d="M156.527 42.981L138.928 15l22.814 13.176-5.215 14.805z" fill="#56C5D0"/><path fill-rule="evenodd" clip-rule="evenodd" d="M122.913 34.647L138.928 15l-22.813 13.176 6.798 6.471z" fill="#006DB7"/><path fill-rule="evenodd" clip-rule="evenodd" d="M156.527 42.981L138.928 15l-16.015 19.647 33.614 8.334z" fill="#1090C0"/><path fill-rule="evenodd" clip-rule="evenodd" d="M156.527 42.981l-33.614-8.334 8.24 21.603 25.374-13.269z" fill="#30AFCC"/><path fill-rule="evenodd" clip-rule="evenodd" d="M138.928 67.703l17.599-24.722-25.374 13.27 7.775 11.452z" fill="#1090C0"/><path fill-rule="evenodd" clip-rule="evenodd" d="M131.153 56.25l-15.038-1.723 6.798-19.88 8.24 21.603z" fill="#006DB7"/><path d="M211 45.635v-17.32h-3.957V45.45c0 3.492-2.189 5.633-5.448 5.633-3.259 0-5.4-2.188-5.4-5.633V28.315h-3.958v17.32c0 5.4 4.051 9.032 9.358 9.032 5.354 0 9.405-3.631 9.405-9.032zm-28.447-9.637c0 2.56-1.816 4.097-4.423 4.097h-5.866v-8.241h5.866c2.607 0 4.423 1.536 4.423 4.144zm4.749 18.436l-6.006-11.546c2.933-.791 5.215-3.212 5.215-6.937 0-4.423-3.166-7.636-8.101-7.636h-10.15v26.12h3.957V43.446h4.935l5.494 11.034h4.656v-.047z" fill="#56C5D0"/><path fill-rule="evenodd" clip-rule="evenodd" d="M49.863 28.315h6.565l6.006 13.037V28.315h6.565v26.352h-6.565l-6.006-13.083v13.083h-6.565V28.315zm-18.39 6.565h6.006v13.222h-6.006V34.88zm12.617-6.565H32.544l-7.589 4.377v21.975h11.546l7.59-4.376V28.315zM6.565 34.88h6.006v13.27H6.565V34.88zm4.981-6.565H0v26.352h11.546l7.59-4.376v-17.6l-7.59-4.376z" fill="#006DB7"/><path d="M112.53 50.943v-4.517h-2.374v-4.888h-4.609v4.888h-5.448l8.939-17.924h-5.214l-8.94 17.924v4.517h10.663v3.724h4.609v-3.724h2.374zm-20.671 3.724v-4.33h-10.15l7.356-8.52c1.816-2.095 2.794-3.445 2.794-6.006 0-4.702-3.306-7.635-7.962-7.635-4.516 0-8.008 2.886-8.008 7.682h4.796c0-2.56 1.63-3.352 3.212-3.352 2.049 0 3.166 1.35 3.166 3.305 0 1.21-.419 2.049-1.35 3.166l-9.824 11.36v4.33h15.97z" fill="#006DB7"/></svg>
